X:1
T:James Gibb editions
T:Ich weiss mir ein meidlein - Lasso
T:#
%%score [ 1 2 3 4 ]
L:1/8
Q:1/4=130
M:2/2
K:F
V:1 treble nm="Soprano" snm="S"
V:2 treble nm="Alto" snm="A"
V:3 treble-8 nm="Tenor" snm="T"
V:4 bass nm="Bass" snm="B"
V:1
"^Ich weiss mir ein meidlein""^Orlando di Lasso\n(1532-94)" F4 c4- | c2 A2 G4 | A2 F2 z2 (c2- | %3
w: Ich weiss|* mir ein|Meid- lein hübsch|
 cBAG FG A2- |[M:2/2] AG F4) E2 | F8 | z2 A4 B2 | A4 z2 F2- | F2 G2 B2 A2- | A2 G2 F2 A2 | G8 | %11
w: |* * * und|fein,|hüt du|dich, es|* kann wohl falsch|* und freund- lich|sein,|
 z8 | z8 | G2 d2 G4 | G2 d2 G4 | z4 A2 B2 | A2 G2 F2 E2 | D4 d2 _e2 | d2 c2 B2 A2 | G4 A2 B2 | %20
w: ||hüt du dich,|hüt du dich,|hüt du|dich, ver- trau ihr|nicht, hüt du|dich ver- trau ihr|nicht, hüt du|
 A2 G2 F2 E2 | D2 D2 FDFD | (FGAF G2) G2 | A2 F2 FDFD | (FGAB c2) c2 | A4 F2 F2 | F4 A2 B2 | %27
w: dich ver- trau ihr|nicht, sie nar- nar- nar- nar,|nar\- * * * * ret|dich, sie nar- nar- nar- nar,|nar\- * * * * ret|dich, hüt du|dich, hüt du|
 A2 G2 F2 E2 | D4 d2 _e2 | d2 c2 B2 A2 | G4 A2 B2 | A2 G2 F2 E2 | D2 D2 FDFD | (FGAF G2) G2 | %34
w: dich, ver- trau ihr|nicht, hüt du|dich, ver- trau ihr|nicht, hüt du|dich, ver- trau ihr|nicht, sie nar- nar- nar- nar,|nar\- * * * * ret|
 A2 F2 FDFD | (FGAB c2) c2 | A2 F2[Q:1/4=129] F[Q:1/4=127]D[Q:1/4=125]F[Q:1/4=123]D | %37
w: dich, sie nar- nar- nar- nar,|nar\- * * * * ret|dich, sie nar- nar- nar- nar,|
[Q:1/4=119] F4[Q:1/4=113] F4 |[Q:1/4=110] F8 |] %39
w: nar- ret|dich!|
V:2
 z4 C4 | F4 E2 E2 | F2 C2 (GFED | C4) D4 |[M:2/2] C8 | C6 D2 | C2 F2 F4 | F4 C4 | D2 _E2 F4 | %9
w: Ich|weiss mir ein|Meid- lein hübsch * * *|* und|fein,|hüt du|dich, hüt du|dich es|kann wohl falsch|
 D4 D2 F2 | E4 z2 C2- | C2 D2 F2 E2- | E2 D2 C2 E2 | D4 D2 E2 | D4 D2 E2 | D4 F2 F2 | F2 E2 D2 C2 | %17
w: und freund- lich|sein, es|* kann wohl falsch|* und freund- lich|sein, hüt du|dich. hüt du|dich, hüt du|dich, ver- trau ihr|
 B,4 B,2 B,2 | B,2 C2 D2 F2 | E4 F2 F2 | F2 E2 D2 C2 | B,2 D2 DB,DB, | (DEFD E2) E2 | %23
w: nicht, hüt du|dich ver- trau ihr|nicht, hüt du|dich ver- trau ihr|nicht, sie nar- nar- nar- nar,|nar\- * * * * ret|
 F2 D2 CB,CB, | (C2 F3 E/D/) E2 | F4 C2 D2 | C4 F2 F2 | F2 E2 D2 C2 | B,4 B,2 B,2 | B,2 C2 D2 F2 | %30
w: dich, sie nar- nar- nar- nar,|nar\- * * * ret|dich, hüt du|dich, hüt du|dich, ver- trau ihr|nich~t, hüt du|dich, ver- trau ihr|
 E4 F2 F2 | F2 E2 D2 C2 | B,2 D2 DB,DB, | (DEFD E2) E2 | F2 D2 CB,CB, | (C2 F3 E/D/) E2 | %36
w: nicht, hüt du|dich, ver- trau ihr|nicht, sie nar- nar- nar- nar,|nar\- * * * * ret|dich, sie nar- nar- nar- nar,|nar\- * * * ret|
 F2 D2 CB,CB, | C2 D2 D2 D2 | C8 |] %39
w: dich, sie nar- nar- nar- nar,|nar- nar, nar- ret|dich!|
V:3
 z8 | F4 c4- | c2 A2 G4 | A6 F2 |[M:2/2][K:treble-8] E2 A2 G4 | %5
w: |Ich weiss|* mir ein|Meid- lein|hübsch und fern,|
 A6"^du dich, hut du dich, es kann wohl falsch" B2 | A2 c4 d2 | c4 A4 | B2 c2 d4 | B4 B2 F2 | %10
w: hüt *||||und freund- lich|
 c4 G4 | A2 G2 c4 | A4 A2 c2 | =B4 B2 c2 | =B4 B2 c2 | =B4 c2 d2 | c2 c2 A2 A2 | F4 F2 G2 | %18
w: sein, es|kann wohl falsch|und freund- lich|sein, hüt du|dich, hüt du|dich, hüt du|dich, ver- trau ihr|nicht, hüt du|
 F2 F2 F2 c2 | c4 c2 d2 | c2 c2 A2 A2 | F2 B2 AGAG | A4 c4 | c2 B2 AFAF | (ABcF G2) G2 | c4 A2 B2 | %26
w: dich ver- trau ihr|nicht, hüt du|dich ver- trau ihr|nicht, sie nar- nar- nar- nar,|nar- ret|dich, sie nar- nar- nar- nar,|nar\- * * * * ret|dich, hüt du|
 A4 c2 d2 | c2 c2 A2 A2 | F4 F2 G2 | F2 F2 F2 c2 | c4 c2 d2 | c2 c2 A2 A2 | F2 B2 AGAG | A4 c4 | %34
w: dich, hüt du|dich, ver- trau ihr|nicht, hüt du|dich, ver- trau ihr|nicht, hüt du|dich, ver- trau ihr|nicht, sie nar- nar- nar- nar,|nar- ret|
 c2 B2 AFAF | (ABcF G2) G2 | c2 B2 AFAF | A2 A2 B2 B2 | A8 |] %39
w: dich, sie nar- nar- nar- nar,|nar\- * * * * ret|dich, sie nar- nar- nar- nar,|nar- nar, nar- ret|dich!|
V:4
 z8 | z4 C,4 | F,4 E,2 E,2 | F,4 D,4 |[M:2/2] A,,4 C,4 | F,,4 F,2 B,,2 | F,4 F,2 B,,2 | F,8 | z8 | %9
w: |Ich|weiss mir ein|Meid- lein|hübsch und|fern, hüt du|dich, hüt du|dich,||
 z8 | z4 E,4 | F,2 B,2 A,4 | F,4 F,2 C,2 | G,4 G,2 C,2 | G,4 G,2 C,2 | G,4 F,2 B,,2 | %16
w: |es|kann wohl falsch|und freund- lich|sein, hiit du|dich, hut du|dich, hut du|
 F,2 C,2 D,2 A,,2 | B,,4 B,,2 _E,2 | B,,2 A,,2 B,,2 F,,2 | C,4 F,2 B,,2 | F,2 C,2 D,2 A,,2 | %21
w: dich, ver- trau ihr|nicht, hut du|dich ver- trau ihr|nicht, hüt du|dich ver- trau ihr|
 B,,2 G,,2 D,G,,D,G,, | D,4 C,4 | F,2 B,,2 F,B,,F,B,, | (F,3 D, C,2) C,2 | F,,4 F,2 B,,2 | %26
w: nicht, sie nar- nar- nar- nar,|nar- ret|dich, sie nar- nar- nar- nar,|nar\- * * ret|dich, hüt du|
 F,4 F,2 B,,2 | F,2 C,2 D,2 A,,2 | B,,4 B,,2 _E,2 | B,,2 A,,2 B,,2 F,,2 | C,4 F,2 B,,2 | %31
w: dich, hüt du|dich, ver- trau ihr|nicht, hüt du|dich, ver- trau ihr|nicht, hüt du|
 F,2 C,2 D,2 A,,2 | B,,2 G,,2 D,G,,D,G,, | D,4 C,4 | F,2 B,,2 F,B,,F,B,, | (F,3 E, C,2) C,2 | %36
w: dich, ver- trau ihr|nicht, sie nar- nar- nar- nar,|nar- ret|dich, sie nar- nar- nar- nar,|nar\- * * ret|
 F,,2 B,,2 F,B,,F,B,, | (F,E,D,C, B,,2) B,,2 | [F,,F,]8 |] %39
w: dich, sie nar- nar- nar- nar,|nar\- * * * * ret|dich!|

